src/icons/svgs/24/twitter.svg

<svg width="24" height="24" viewBox="0 0 24 24" fill="none" xmlns="http://www.w3.org/2000/svg">
<path d="M24 5.20417C23.1375 5.5875 22.275 5.875 21.3167 5.97083C22.275 5.39583 23.0417 4.4375 23.425 3.38333C22.4667 3.95833 21.5083 4.34167 20.4542 4.53333C19.5917 3.575 18.3458 3 17.0042 3C14.4167 3 12.3083 5.10833 12.3083 7.69583C12.3083 8.07917 12.3083 8.4625 12.4042 8.75C8.37917 8.55833 4.92917 6.64167 2.62917 3.76667C2.15 4.53333 1.95833 5.3 1.95833 6.1625C1.95833 7.79167 2.82083 9.22917 4.06667 10.0917C3.3 10.0917 2.53333 9.9 1.95833 9.51667C1.95833 9.51667 1.95833 9.51667 1.95833 9.6125C1.95833 11.9125 3.5875 13.8292 5.69583 14.2125C5.3125 14.3083 4.92917 14.4042 4.45 14.4042C4.1625 14.4042 3.875 14.4042 3.5875 14.3083C4.1625 16.225 5.8875 17.5667 7.99583 17.5667C6.36667 18.8125 4.35417 19.5792 2.15 19.5792C1.76667 19.5792 1.38333 19.5792 1 19.4833C3.10833 20.825 5.6 21.5917 8.1875 21.5917C16.9083 21.5917 21.6042 14.4042 21.6042 8.175C21.6042 7.98333 21.6042 7.79167 21.6042 7.6C22.5625 6.92917 23.3292 6.06667 24 5.20417Z" fill="black"/>
</svg>

<svg width="24" height="24" viewBox="0 0 24 24" xmlns="http://www.w3.org/2000/svg">
    <path d="M24 5.204c-.863.384-1.725.671-2.683.767.958-.575 1.725-1.534 2.108-2.588-.958.575-1.917.959-2.97 1.15A4.64 4.64 0 0 0 17.004 3a4.704 4.704 0 0 0-4.697 4.696c0 .383 0 .767.096 1.054A13.232 13.232 0 0 1 2.63 3.767c-.479.766-.67 1.533-.67 2.395 0 1.63.862 3.067 2.108 3.93-.767 0-1.534-.192-2.109-.575v.096c0 2.3 1.63 4.216 3.738 4.6-.383.095-.767.191-1.246.191-.288 0-.575 0-.863-.096.575 1.917 2.3 3.259 4.409 3.259-1.63 1.245-3.642 2.012-5.846 2.012-.383 0-.767 0-1.15-.096a13.415 13.415 0 0 0 7.188 2.109c8.72 0 13.416-7.188 13.416-13.417V7.6c.959-.67 1.725-1.533 2.396-2.396Z"/>
</svg>
